web-magafilio/image/footer/icon-email.svg

<svg width="15" height="11" viewBox="0 0 15 11" fill="none" xmlns="http://www.w3.org/2000/svg">
<path d="M12.7585 0.429688H1.38354C0.645264 0.429688 0.0710449 1.03125 0.0710449 1.74219V9.61719C0.0710449 10.3555 0.645264 10.9297 1.38354 10.9297H12.7585C13.4695 10.9297 14.071 10.3555 14.071 9.61719V1.74219C14.071 1.03125 13.4695 0.429688 12.7585 0.429688ZM12.7585 1.74219V2.86328C12.1296 3.38281 11.1453 4.14844 9.06714 5.78906C8.60229 6.14453 7.69995 7.01953 7.07104 6.99219C6.41479 7.01953 5.51245 6.14453 5.04761 5.78906C2.96948 4.14844 1.98511 3.38281 1.38354 2.86328V1.74219H12.7585ZM1.38354 9.61719V4.55859C1.98511 5.05078 2.88745 5.76172 4.22729 6.82812C4.82886 7.29297 5.89526 8.33203 7.07104 8.30469C8.21948 8.33203 9.25854 7.29297 9.88745 6.82812C11.2273 5.76172 12.1296 5.05078 12.7585 4.55859V9.61719H1.38354Z" fill="black"/>
</svg>

<svg width="15" height="11" fill="none" xmlns="http://www.w3.org/2000/svg"><path d="M12.758.43H1.384C.645.43.07 1.03.07 1.742v7.875c0 .738.574 1.313 1.313 1.313h11.374c.712 0 1.313-.575 1.313-1.313V1.742A1.33 1.33 0 0012.758.43zm0 1.312v1.121c-.628.52-1.613 1.285-3.69 2.926-.466.356-1.368 1.23-1.997 1.203-.656.028-1.559-.847-2.023-1.203-2.079-1.64-3.063-2.406-3.664-2.926v-1.12h11.374zM1.384 9.617V4.56c.601.492 1.503 1.203 2.843 2.27.602.464 1.668 1.503 2.844 1.476 1.148.027 2.188-1.012 2.816-1.477a449.65 449.65 0 012.871-2.27v5.06H1.384z" fill="#000"/></svg>
